packages/core/src/svgs/tokens/mono/DIP.svg

<svg width="24" height="24" viewBox="0 0 24 24" fill="none" xmlns="http://www.w3.org/2000/svg">
<path d="M21.2909 9.5151L21.2303 9.46065L20.9394 9.19394L20.1818 8.51515L19.5394 7.93332L19.4304 7.8303L19.0122 7.90301L15.0243 8.31519L12.7395 5.16362C12.6782 5.08696 12.5927 5.0335 12.497 5.01211L4.37576 3.67877L3.34546 3.51514L3.90303 4.24847L4.30303 4.77575H2L3.06061 5.76968L9.4243 11.7636L7.60001 20.4849L7.68486 20.3515L11.0728 14.9939L16.9334 12.1151C17.1455 12.0303 17.3213 11.8788 17.4303 11.6848L18.5334 10.1819H22L21.2909 9.5151ZM3.8606 5.51513H4.8606L6.9697 8.43031L3.8606 5.51513ZM5.02425 4.53937L11.9273 5.66059L9.74545 10.9636L5.01818 4.53937H5.02425ZM9.07882 16.8606L9.90907 13L10.4727 14.6121L9.07882 16.8545V16.8606ZM11.0606 14.1879L10.3333 12.0061H15.4849L11.0606 14.1879ZM10.3757 11.3939L12.5213 6.11514L16.2788 11.3939H10.3757ZM16.9939 11.0304L15.5091 8.99398L18.5636 8.70903L16.9878 11.0363L16.9939 11.0304ZM18.994 9.57576L19.3819 8.7697L20.3213 9.57576H18.9879H18.994Z" fill="white"/>
</svg>

<svg xmlns="http://www.w3.org/2000/svg" width="24" height="24" fill="none" viewBox="0 0 24 24">
    <path fill="#fff" d="m21.29 9.515-.06-.054-.29-.267-.758-.679-.643-.582-.109-.103-.418.073-3.988.412-2.284-3.151a.43.43 0 0 0-.243-.152L4.376 3.68l-1.03-.164.557.733.4.528H2l1.06.994 6.364 5.994-1.824 8.72.085-.133 3.388-5.357 5.86-2.879a1 1 0 0 0 .497-.43l1.103-1.503H22zm-17.43-4h1L6.97 8.43zm1.164-.976 6.903 1.122-2.182 5.303-4.727-6.425zM9.08 16.861 9.909 13l.564 1.612-1.394 2.243zm1.982-2.673-.728-2.182h5.152zm-.685-2.794 2.145-5.279 3.758 5.279zm6.618-.364L15.51 8.994l3.055-.285-1.576 2.327zm2-1.454.388-.806.94.806h-1.334z"/>
</svg>
